X: 14076
T: Free Of C & F
R: reel
M: 4/4
K: Adorian
|:A2AB BAGB|deBA Beed|BedB degd|1 BAGB eBdB:|2 BAGB BAAG||
|:A2ag eage|egdB deg2|B2BA Gede|1 BedB dega:|2 BAGB BAAG||

